html/dist/img/expert.svg

<svg width="65" height="55" viewBox="0 0 65 55" fill="none" xmlns="http://www.w3.org/2000/svg">
<path d="M61.5019 0.124481H22.6197C22.0928 0.124481 21.6657 0.551551 21.6657 1.07853C21.6657 1.60552 22.0928 2.03259 22.6197 2.03259H61.5019C62.3787 2.03259 63.0919 2.74581 63.0919 3.62255V44.1277C63.0919 45.0044 62.3787 45.7177 61.5019 45.7177H57.347C59.2137 44.1796 60.4059 41.8511 60.4059 39.2491C60.4059 38.8357 60.3746 38.4295 60.3166 38.0319V9.65498C60.3166 9.128 59.8895 8.70093 59.3625 8.70093C57.742 8.70093 56.4234 7.38252 56.4234 5.76196C56.4234 5.23498 55.9964 4.80791 55.4694 4.80791H9.5305C9.00352 4.80791 8.57645 5.23498 8.57645 5.76196C8.57645 7.38252 7.25791 8.70093 5.63735 8.70093C5.11037 8.70093 4.6833 9.128 4.6833 9.65498V38.0951C4.6833 38.6221 5.11037 39.0492 5.63735 39.0492C7.25791 39.0492 8.57645 40.3675 8.57645 41.9882C8.57645 42.5151 9.00352 42.9422 9.5305 42.9422H30.7741C31.3011 42.9422 31.7281 42.5151 31.7281 41.9882C31.7281 41.4612 31.3011 41.0341 30.7741 41.0341H10.3902C10.0077 39.1252 8.50053 37.6179 6.59141 37.2354V10.5147C8.5004 10.1322 10.0077 8.62501 10.3902 6.71601H54.6096C54.9922 8.62488 56.4995 10.1322 58.4085 10.5147V33.828C56.8703 32.0201 54.581 30.8701 52.0269 30.8701C47.4067 30.8701 43.6479 34.6289 43.6479 39.2491C43.6479 39.8617 43.7158 40.4585 43.8412 41.0341H34.5902C34.0632 41.0341 33.6361 41.4612 33.6361 41.9882C33.6361 42.5151 34.0632 42.9422 34.5902 42.9422H44.508C45.038 44.0169 45.7906 44.9629 46.7068 45.7178H3.49807C2.62133 45.7178 1.90811 45.0046 1.90811 44.1278V3.62255C1.90811 2.74581 2.62133 2.03259 3.49807 2.03259H18.8038C19.3308 2.03259 19.7578 1.60552 19.7578 1.07853C19.7578 0.551551 19.3308 0.124481 18.8038 0.124481H3.49807C1.56927 0.124481 0 1.69362 0 3.62255V44.1277C0 46.0565 1.56927 47.6258 3.49807 47.6258H46.9503V53.9237C46.9363 54.5602 47.6546 55.0854 48.3137 54.7854L52.027 53.0215L55.7404 54.7854C56.2675 55.0714 57.1188 54.6497 57.1038 53.9237V47.6258H61.5022C63.431 47.6258 65.0003 46.0566 65.0003 44.1277V3.62255C65 1.69375 63.4307 0.124481 61.5019 0.124481ZM45.556 39.2491C45.556 35.681 48.4589 32.7781 52.027 32.7781C55.5952 32.7781 58.4981 35.681 58.4981 39.2491C58.4981 42.8173 55.5952 45.7202 52.027 45.7202C48.4589 45.7201 45.556 42.8172 45.556 39.2491ZM52.4362 51.1035C52.1774 50.9805 51.8765 50.9805 51.6176 51.1035L48.8583 52.4142V47.0042C49.8365 47.4054 50.9059 47.6282 52.0269 47.6282C53.1479 47.6282 54.2174 47.4052 55.1955 47.0042V52.4142L52.4362 51.1035Z" fill="#7C7C7D"/>
<path d="M40.5482 15.187C41.0752 15.187 41.5022 14.7599 41.5022 14.233C41.5022 13.706 41.0752 13.2789 40.5482 13.2789H24.4518C23.9248 13.2789 23.4978 13.706 23.4978 14.233C23.4978 14.7599 23.9248 15.187 24.4518 15.187H40.5482Z" fill="#7C7C7D"/>
<path d="M11.3421 20.6611C11.3421 21.188 11.7692 21.6151 12.2962 21.6151H52.7038C53.2308 21.6151 53.6579 21.188 53.6579 20.6611C53.6579 20.1341 53.2308 19.707 52.7038 19.707H12.2962C11.7692 19.707 11.3421 20.1341 11.3421 20.6611Z" fill="#7C7C7D"/>
<path d="M12.2962 28.0431H52.7038C53.2308 28.0431 53.6579 27.616 53.6579 27.0891C53.6579 26.5621 53.2308 26.135 52.7038 26.135H12.2962C11.7692 26.135 11.3421 26.5621 11.3421 27.0891C11.3421 27.616 11.7692 28.0431 12.2962 28.0431Z" fill="#7C7C7D"/>
<path d="M12.2962 34.4713H30.7741C31.3011 34.4713 31.7281 34.0442 31.7281 33.5172C31.7281 32.9902 31.3011 32.5632 30.7741 32.5632H12.2962C11.7692 32.5632 11.3421 32.9902 11.3421 33.5172C11.3421 34.0442 11.7692 34.4713 12.2962 34.4713Z" fill="#7C7C7D"/>
<path d="M52.0269 43.9104C54.5972 43.9104 56.6881 41.8193 56.6881 39.2491C56.6881 36.679 54.5971 34.5879 52.0269 34.5879C49.4567 34.5879 47.3657 36.679 47.3657 39.2491C47.3657 41.8193 49.4566 43.9104 52.0269 43.9104ZM52.0269 36.4959C53.545 36.4959 54.7801 37.731 54.7801 39.2491C54.7801 40.7672 53.545 42.0024 52.0269 42.0024C50.5088 42.0024 49.2737 40.7672 49.2737 39.2491C49.2737 37.731 50.5088 36.4959 52.0269 36.4959Z" fill="#E30613"/>
</svg>

<svg width="65" height="55" viewBox="0 0 65 55" fill="none" xmlns="http://www.w3.org/2000/svg"><path d="M61.502.124H22.62a.954.954 0 100 1.909h38.882c.877 0 1.59.713 1.59 1.59v40.505c0 .876-.713 1.59-1.59 1.59h-4.155a8.366 8.366 0 002.97-7.686V9.655a.954.954 0 00-.955-.954 2.942 2.942 0 01-2.939-2.939.954.954 0 00-.954-.954H9.53a.954.954 0 00-.954.954 2.942 2.942 0 01-2.939 2.939.954.954 0 00-.954.954v28.44c0 .527.427.954.954.954 1.62 0 2.94 1.319 2.94 2.94 0 .526.427.953.954.953h21.243a.954.954 0 100-1.908H10.39a4.861 4.861 0 00-3.799-3.799v-26.72a4.861 4.861 0 003.8-3.799H54.61a4.862 4.862 0 003.798 3.799v23.313a8.362 8.362 0 00-6.381-2.958c-4.62 0-8.38 3.759-8.38 8.38 0 .612.069 1.209.194 1.784h-9.25a.954.954 0 100 1.908h9.917a8.431 8.431 0 002.199 2.776H3.498c-.877 0-1.59-.713-1.59-1.59V3.623c0-.877.713-1.59 1.59-1.59h15.306a.954.954 0 100-1.909H3.498A3.502 3.502 0 000 3.623v40.505a3.502 3.502 0 003.498 3.498H46.95v6.298c-.014.636.705 1.161 1.364.861l3.713-1.763 3.713 1.763c.527.286 1.379-.135 1.364-.861v-6.298h4.398A3.502 3.502 0 0065 44.128V3.623A3.503 3.503 0 0061.502.124zM45.556 39.25a6.478 6.478 0 016.471-6.47 6.478 6.478 0 016.471 6.47 6.478 6.478 0 01-6.471 6.471 6.479 6.479 0 01-6.471-6.47zm6.88 11.854a.954.954 0 00-.818 0l-2.76 1.311v-5.41a8.33 8.33 0 003.169.624c1.12 0 2.19-.223 3.169-.624v5.41l-2.76-1.31z" fill="#7C7C7D"/><path d="M40.548 15.187a.954.954 0 100-1.908H24.452a.954.954 0 100 1.908h16.096zm-29.206 5.474c0 .527.427.954.954.954h40.408a.954.954 0 100-1.908H12.296a.954.954 0 00-.954.954zm.954 7.382h40.408a.954.954 0 100-1.908H12.296a.954.954 0 100 1.908zm0 6.428h18.478a.954.954 0 100-1.908H12.296a.954.954 0 100 1.908z" fill="#7C7C7D"/><path d="M52.027 43.91a4.666 4.666 0 004.661-4.66 4.667 4.667 0 00-4.661-4.662 4.667 4.667 0 00-4.661 4.661c0 2.57 2.09 4.661 4.66 4.661zm0-7.414a2.756 2.756 0 012.753 2.753 2.756 2.756 0 01-2.753 2.753 2.756 2.756 0 01-2.753-2.753 2.756 2.756 0 012.753-2.753z" fill="#E30613"/></svg>
